X:1
T:Habanera
%%score ( 1 2 )
L:1/8
Q:1/4=60
M:2/4
K:F
V:1 treble-8 nm="Guitare"
V:2 treble-8 
V:1
 z4 | z4 | z4 | z2 d'^c' | (3c'c'c' =b_b | a>a ^g=g | fe/f/ gf | e z d'^c' | (3c'c'c' =b_b | %9
 a>a z f | ed/e/ z e | d4 |] %12
V:2
 F>A fA/ z/ | D>A fA/ z/ | D>A fA/ z/ | D>A fA/ z/ | D>A fA/ z/ | D>A fA/ z/ | D>A fA/ z/ | %7
 D>A gB/ z/ | D>B dB/ z/ | D>A gB/ z/ | D>A fB/ z/ | D4 |] %12

